X:1
T:French Overture
T:French Ouverture II. Courante 
T:Johann Sebastian Bach
T:Public Domain
T:Public Domain
T:Public Domain
T:Public Domain
T:Public Domain
T:Public Domain
C:Johann Sebastian Bach
Z:Public Domain
%%score { ( 1 3 5 ) | ( 2 4 6 ) } ( 7 8 9 ) ( 10 11 12 )
L:1/8
Q:1/4=180
M:3/2
K:D
V:1 treble nm="Harpsichord"
V:3 treble 
V:5 treble 
V:2 bass 
V:4 bass 
V:6 bass 
V:7 treble nm="Blanchet"
V:8 treble 
V:9 treble 
V:10 bass nm="Blanchet"
V:11 bass 
V:12 bass 
V:1
"^Presto" F | F3 B{B} ^A2 B2 PG3 F |{F} G3 F E2 FG FEDC | DCB,C DE F2- F^ABc | ^A6 c2{G} F3 c | %5
 d3 c B2 e^G MA3 B | c3 B (ABc^d) Pd3 c/d/ | e4- edec Mf3 e | d3 e c4- cFBB | B4- B^GAB AGAF | %10
 ^E3 F ^GABG c3 B |{B} A3 ^G F^EFG G3 F | F6-[Q:1/4=150] F4 ::[Q:1/4=180] c | c3 B ^ABcF- f3 e | %15
{e} [Bd]3 c B2 FE TF3 G | A2 Bc defd{c} B3 e | Pc3 B (A2 Bc dcBA) | GFED A3 B PE3 D | %19
 D6 dc Bc ^A2 |{^A} B3 E ^D2 =A2 AGAF | G4- GEGB eBef |{f} !invertedturn!g3 f edcd ed/c/dc/B/ | %23
 ^A3 B cdec c4 | [Bd]3 c B^ABc Pc3 B | B6-[Q:1/4=120] B4 :| %26
V:2
 z | B,,6 B,,,F,, B,,4- | B,,2 B,,,F,, B,,6 B,,,F,, | z2 D,2 F,4 B,,3 ^A,,/B,,/ | %4
 C,2 F,G,{G,} F,3 E, D,C,B,,^A,, | B,,2 C,2 z A,^G,B, C,B,,A,,^G,, | %6
 A,,2 B,,2 C,2 (B,,A,, G,,F,,) B,,2 | A,,G,,F,,E,, M^A,,4- A,,^G,,A,,F,, | %8
 B,,4- B,,/C,/B,,/A,,/B,,C, F,3 z | ^E,,^G,,C,C, C,6 C,,2 | C,B,,D,C, B,,A,,^G,,F,, ^E,,C,^D,^E, | %11
 F,2 C,2 D,2 B,,2 C,4- | C,2 C,2 F,2- F,4 :: z | F,,2 F,2 C,2 E,2 (B,,^A,,^G,,F,,) | %15
 z2 D,2 F,2 x2 =C2 B,2 | A,2 G,2 A,4 x2 B,2 | A,2 B,C D4 x4 | B,A,G,F, G,E,F,G, A,4 | %19
 F,4 F,2 D,2 E,2 F,2 | G,(F,A,G, F,E,^D,C,) D,2 B,,2 | E,2 E,,B,, E,6 E,,B,, | E,6 E,,B,, E,4- | %23
 E,(F,G,F, E,D,C,B,,) ^A,,F,^G,^A, | B,2 F,2 G,2 E,2 F,4 | B,,4 F,,2 B,,4 :| %26
V:3
 x | [B,D]4 C2 D2 D4 | E3 D C2 DE ^A,4 | x6 C2 D2 E2 | F4- x8 | F2 x6 E4 | E2 x10 | x12 | %8
 z B F2 ^E2 F2 x4 | z2 z ^G ^E4 F3 z | x8 C4- | C3 ^E F z z2 E4 | x6 C4 :: x | [F^A]3 x5 [F-c]4 | %15
 F3 E D2 D2 D4- | D2 x6 z2 z G | E4 F4 x4 | x4 z C D2 C4 | A,6 F2 G2 F2 | F3 x5 F4 | %21
 z2 B,2- B, x3 z B3- | BB A2 G4- G4 | x8 F4- | F3 ^A B z z2 A4 | x6 [DF]4 :| %26
V:4
 x | x12 | x12 | B,,6 A,,2 G,,4 | F,,2 x10 | x4 C,4 x4 | x12 | x12 | x8 D,3 F,, | x12 | x12 | %11
 x8 z2 C,,2 | F,,6 F,,4 :: x | x12 | B,,6 B,2 A,2 G,2 | F,2 E,2 F,2 D,2 G,2 E,2 | %17
 A,2 G,2 F,2 G,A, B,4- | x8 A,2 A,,2 | D,C,D,E, x8 | x12 | x12 | x12 | x12 | x8 z2 F,,2 | %25
 z2 B,,,4- B,,,4 :| %26
V:5
 x | x12 | x12 | x12 | x12 | B3 x9 | A3 x9 | x12 | x12 | x12 | x8 ^G4 | F4 x8 | x10 :: x | x12 | %15
 x12 | x12 | x12 | x12 | x12 | x12 | x E3 x8 | x12 | x8 f3 e | x12 | x10 :| %26
V:6
 x | x12 | x12 | x12 | x12 | x12 | x12 | x12 | x12 | x12 | x12 | x12 | x6 ^A,4 :: x | x12 | x12 | %16
 x12 | x12 | x12 | x12 | x12 | x12 | x12 | x12 | x12 | x10 :| %26
V:7
 F | !arpeggio![B,-D-F]3 B{B} ^A2 B2 =A PG2 F | F G2 F E2 F G F E D C | D C B, C D E F2- F ^A B c | %4
 B ^A4- A c2 G F2 c | !arpeggio![FB-d-]2 [Bd] c B2 e ^G MA3 B | %6
 !arpeggio![EA-c-]2 [Ac] B (A B c ^d) e Td d c/ d/ | e4- e d e c Mf3 e | d3 e c4- c F B B | %9
 MB4- B ^G A B A G A F | ^E3 F ^G A B G !arpeggio![C-G-c]3 [C-GB] | %11
 B A2 ^G F ^E F G A3/4 TG G/4- G F | F6- !tenuto!.F4 :: c | %14
 !arpeggio![F^Ac]3 B ^A B c F !arpeggio![F-cf]3 [F-e] | [B-e] [Bd]2 c B2 F E MF3 G | %16
 A2 B c d e f d c B2 e | Pc3 B (A2 B c d c B A) | G F E D A3 B F TE3/2 E/ D | D6 d c B c ^A2 | %20
 ^A B2 E ^D2 =A2 A G A F | G4- G E G B e B e f | f g2 f e d c d e d/ c/ d c/ B/ | %23
 P^A3 B c d e c !arpeggio![F-c-f]3 [F-ce] | [B-e] [Bd]2 c B ^A B c d Tc3/2 c/ B | B6- B4 :| %26
V:8
 x | x3 [B,D] C2 D2 D4 | E3 D C2 D E ^A,4 | x6 C2 D2 E2 | F4 x8 | x8 E4 | x12 | x12 | %8
 z B F2 ^E2 F2 x4 | z2 z ^G ^E4 F3 z | x12 | C3 ^E F z z2 E4 | x10 :: x | x12 | F3 E D2 D2 D4- | %16
 D2 x6 z2 z G | E4 F4 x4 | x4 z C D2 C4 | A,6 F2 G2 F2 | F3 x5 F4 | z2 B,2- B, x3 z B3- | %22
 B B A2 G4- G4 | x12 | F3 ^A B z z2 A4 | x6 !arpeggio![DF]4 :| %26
V:9
 x | x12 | x12 | x12 | x12 | x12 | x12 | x12 | x12 | x12 | x12 | F4 x8 | x10 :: x | x12 | x12 | %16
 x12 | x12 | x12 | x12 | x12 | x E3 x8 | x12 | x12 | x12 | x10 :| %26
V:10
 z | B,,6 B,,, F,, B,,4- | B,,2 B,,, F,, B,,6 B,,, F,, | z2 D,2 F,4 B,,3 ^A,,/ B,,/ | %4
 C,2 F, G, G, F,2 E, D, C, B,, ^A,, | B,,2 C,2 z A, ^G, B, C, B,, A,, ^G,, | %6
 A,,2 B,,2 C,2 (B,, A,, G,, F,,) B,,2 | A,, G,, F,, E,, M^A,,4- A,, ^G,, A,, F,, | %8
 B,,4- B,,/ C,/ B,,/ A,,/ B,, C, F,3 z | ^E,, ^G,, C, C, C,6 C,,2 | %10
 C, B,, D, C, B,, A,, ^G,, F,, ^E,, C, ^D, ^E, | F,2 C,2 D,2 B,,2 C,4- | C,2 C,2 F,2- [F,,F,]4 :: %13
 z | F,,2 F,2 C,2 E,2 (B,, ^A,, ^G,, F,,) | z2 D,2 F,2 x2 =C2 B,2 | A,2 G,2 A,4 x2 B,2 | %17
 A,2 B, C D4 x4 | B, A, G, F, G, E, F, G, A,4 | F,4 F,2 D,2 E,2 F,2 | %20
 G, (F, A, G, F, E, ^D, C,) D,2 B,,2 | E,2 E,, B,, E,6 E,, B,, | E,6 E,, B,, E,4- | %23
 E, (F, G, F, E, D, C, B,,) ^A,, F, ^G, ^A, | B,2 F,2 G,2 E,2 F,4 | B,,4 F,,2 B,,4 :| %26
V:11
 x | x12 | x12 | B,,6 A,,2 G,,4 | F,,2 x10 | x4 D,4 x4 | x12 | x12 | x8 D,3 F,, | x12 | x12 | %11
 x8 z2 C,,2 | F,,6- x4 :: x | x12 | B,,6 B,2 A,2 G,2 | F,2 E,2 F,2 D,2 G,2 E,2 | %17
 A,2 G,2 F,2 G, A, B,4- | x8 A,2 .A,,2 | D, C, D, E, x8 | x12 | x12 | x12 | x12 | x8 z2 F,,2 | %25
 z2 B,,,4- B,,,4 :| %26
V:12
 x | x12 | x12 | x12 | x12 | x12 | x12 | x12 | x12 | x12 | x12 | x12 | x6 !arpeggio![^A,C]4 :: x | %14
 x12 | x12 | x12 | x12 | x12 | x12 | x12 | x12 | x12 | x12 | x12 | x10 :| %26

